!!!COM: Hugo Wolf
!!!CNT: Deutscher
!!!TXO: Deutsche 
!!!OTL: Gutmann und Gutweib
!!!ODT: 1888/12/28
!!!ONM: No. 13
!!!LYR: Johann Wolfgang von Goethe
!!!ENC: Brian Bice
!!!YOR: 45 Songs on Poems of Goethe and Eichendorff, Dover Publications, 1995
!!NB: Vocal melody and text only encoded.
**kern	**silbe
*clefG2	*
*k[f#c#]	*
*M4/4	*
=0	=0
2.r	.
{4a	{Und
=1	=1
4.d	mor-
8d	-gen
4e	fa2llt
4f#	Sankt
=2	=2
8.g	Mar-
16b	-tins
4.b}	Fest,}
8r	.
4r;	.
=3	=3
{4f#	{Gut-
4b	-weib
4b-	liebt
[4b-	ih
=4	=4
8b-]	|
8a	|
8g	-ren
8ee-	|
4dd;}	Mann;}
4r	.
=5	=5
4r	.
{4gg	{da
4ccn	kne-
4ee-	-tet
=6	=6
4a	sie
4ccn	ihm
4fn	Pud-
4ee-	-dings
=7	=7
2dd	ein
4r	.
4een	und
=8	=8
4f#	ba2ckt
4a	sie
4d	in
4ccn	der
=9	=9
4e-}	Pfann.}
4r	.
2r	.
=14	=14
8r	.
{8d	{Im
4.d	Bet-
8d	-te
8d	lie-
8d	-gen
=15	=15
4.d	bei-
8g	-de
4d	nun,
4r	.
=16	=16
8r	.
8f#	da
8f#	saust
8f#	ein
4.f#	wil-
8f#	-der
=17	=17
2a}	West;}
2r	.
=18	=18
8r	.
{8b	{und
4.b	Gut-
8fn	-mann
8e	spricht
8d#	zur
=19	=19
4dn	gu-
4b	-ten
4cn	Frau:
4ccn	du,
=20	=20
4r	.
12e	rieg-
12g	-le
12a	die
[2b	Tu2-
=21	=21
4b]	|
4f#	-re
4f#}	fest.}
4r	.
=22	=22
4r	.
8r	.
{8dd	{Bin
4.ccn	kaum
8b-	er-
=23	=23
8a	-holt
8dd	und
8ccn	halb
8b-	er-
2a	-warmt,
=24	=24
4r	.
8r	.
8ccn	wie
8bn	ka2m
8cc#	ich
8dd	da
8ffn	zu
=25	=25
4.a}	Ruh;}
8r	.
2r	.
=26	=26
4r	.
{4cc#	{und
12dd	klapp-
12a	-er-
12g	-te
8f#	sie
8dd	ein-
=27	=27
6ee-	-hun-
12dd	-dert
4dd-	Jahr,
8r	.
8e-	ich
[4e-	rie-
=28	=28
(2e-]	|
12d)	|
12g	-gel-
12an	-te
[4b-	sie
=29	=29
8b-]	|
8r	.
4dd	nicht
4g}	zu.}
4r	.
=39	=39
4r	.
{4d	{Drauf
4r	.
8d	ei-
8d	-ne
=40	=40
8.d	Wet-
16g	-te
2g	schlos-
4b-	-sen
=41	=41
4a	sie
4dd	ganz
(2cc#	lei-
=42	=42
8ccn)	|
8g	-se
8e	sich
8d	ins
4.c#}	Ohr:}
8r	.
=43	=43
4r	.
{4b	{So
4r	.
8b	wer
8b	das
=44	=44
4.b	er-
8b	-ste
4b	Wo2rt-
4cc#	-lein
=45	=45
4.dd	spra2ch,
8r	.
4cc#	der
12f#	scho2-
12a	-be
12b	den
=46	=46
4.cc#	Rie-
8cc#	-gel
4f#}	vor.}
4r	.
=52	=52
*k[b-]	*
4.r	.
{8a	{Zwei
8.a	Wan-
16a	-der-
4a	-er
=53	=53
4a	kom-
8a	-men
8a	um
8.a	Mit-
16b-	-ter-
8a	-nacht
8e	und
=54	=54
4fn	wis-
4a-	-sen
4cn	nicht,
[4g	wo
=55	=55
4g]	|
4f#	sie
4.bn}	stehn,}
8r	.
=56	=56
4r	.
8r	.
{8dd	{die
4.dd	Lam-
8f#	-pe
=57	=57
4fn	losch,
8r	.
8dd-	der
4.ccn	Herd
8e	ver-
=58	=58
4e-	-glomm,
8r	.
8a	zu
4b-	ho2-
8b-	-ren
8b-	ist
=59	=59
4a	nichts,
8r	.
8a	zu
4d}	sehn.}
4r	.
=61	=61
2r	.
8r	.
{8cc#	{Was
8cc#	ist
8cc#	das
=62	=62
8dd	fu2r
8dd	ein
8ff#	He-
8dd	-xen-
2cc#	-ort?
=63	=63
2r	.
8r	.
8ccn	da
[4ee-	bricht
=64	=64
8ee-]	|
8f#	uns
8a	die
8b-	Ged-
4dd}	-uld!}
4r	.
=65	=65
2r	.
8r	.
{8c#	{Doch
[4c#	ho2r-
=66	=66
8c#]	|
8f#	-ten
8f#	sie
8a	kein
8.g#	Ster-
16cc#	-ben-
4cc#	-swort,
=67	=67
4r	.
4ccn	des
12r	.
12e-	war
12fn	die
[4gn	Tu2-
=68	=68
4gn]	|
4g	-re
4en}	schuld.}
4r	.
=70	=70
2r	.
4r	.
{4cc	{Den
=71	=71
4ee-	wei-
4cc	-ssen
4a	Pud-
4g	-ding
=72	=72
4f	spei-
4ee-	-sten
4dd	sie,
8r	.
8cc#	den
=73	=73
4dd	schwar-
4b-	-zen
4d	ganz
4ccn	ver-
=74	=74
4e-}	-traut.}
4r	.
2r	.
=76	=76
8r	.
{8d	{Und
4.d	Gut-
8d	-weib
8d	sagt
8d	sich
=77	=77
8.d	sel-
16dd	-ber
2dd	viel,
4r	.
=78	=78
4r	.
4dd	doch
12r	.
12a	kei-
12cc	-ne
[4f	Sil-
=79	=79
4f]	|
4e	-be
4a}	laut.}
4r	.
=82	=82
8r	.
{8a	{Zu
4.a	die-
8a	-sem
8a	sprach
8a	der
=83	=83
4a	je-
4dd	-ne
2a	dann:
=84	=84
8r	.
8cc	wie
[4cc	trok-
8cc]	|
4cc	-ken
[8cc	ist
=85	=85
8cc]	|
4bn	mir
8a#	der
4.f#}	Hals!}
8r	.
=86	=86
8r	.
{8b-	{Der
[4b-	Schrank,
8b-]	|
8dd	der
8dd	klafft,
8f#	und
=87	=87
4cc#	gei-
4cc#	-stig
2e	riecht's,
=88	=88
4r	.
8r	.
8bn	da
8.b-	fin-
16dd	-det
4dd	sich's
=89	=89
4a	al-
4cc#	-len-
2dd}	-falls.}
=91	=91
*k[f#c#]	*
2r	.
8r	.
{8ccn	{Ein
8ccn	Fla2sch-
8ccn	-chen
=92	=92
8.ccn	Schnap-
16ccn	-ser-
4.ccn	-greif
8ee-	ich
4dd	da,
=93	=93
2r	.
8r	.
8b	das
[4b	trifft
=94	=94
8.b]	|
16b	sich
8dd	doch
8ffn	ge-
4b}	-schickt!}
4r	.
=95	=95
8r	.
{8dd-	{Ich
8r	.
4dd-	bring
8ee-	es
4a-	dir,
=96	=96
8r	.
4ddn	du
[8ccn	bringst
8ccn]	|
8b-	es
8an	mir,
8g	|
=97	=97
8r	.
8g	und
[2g	bald
8g]	|
[8ee-	sind
=98	=98
8ee-]	|
4dd	wir
8cc	er-
4dd}	-quickt.}
4r	.
=99	=99
2r	.
8r	.
{8cc	{Doch
[4ee	Gut-
=100	=100
8ee]	|
8ffn	-mann
8ee	sprang
8dd	so
8.cc#	hef-
16ee	-tig
[4ee	auf
=101	=101
8ee]	|
8r	.
4r	.
8r	.
8ccn	und
8ee-	fuhr
8f#	sie
=102	=102
4g	dro-
4b-	-hend
2dd}	an:}
=103	=103
8r	.
{8cc#	{be-
4.cc#	-zah-
8cc#	-len
[4cc#	soll
=104	=104
4cc#]	|
4cc#	mit
4cc#	teu-
4dd#	-rem
=105	=105
4ee#	Geld,
4r	.
[4ff#	wer
12ff#]	|
12a	mir
12b	den
=106	=106
8cc#	Schnaps
8r	.
4cc#	ver-
4f#}	-tan!}
4r	.
=107	=107
4r	.
8r	.
{8dd	{Und
4.dd	Gut-
8dd	-weib
=108	=108
8dd	sprang
8dd	auch
4.dd	froh
8ff#	her-
4b	-an,
=109	=109
4r	.
4ee	drei
2ee	Spru2n-
=110	=110
8b-	-ge,
8a	als
8ee	wa2r
8ff#	sie
2gg}	reich:}
=111	=111
4r	.
{4ffn	{Du,
8ee	Gut-
8dd	-mann,
8cc#	sprachst
8a	das
=112	=112
4b-	er-
4fn	-ste
2b-	Wort,
=113	=113
4r	.
4dd	nun
[4ffn	rieg-
12ffn]	|
12een	-le
12dd	die
=114	=114
*M2/4	*
4a	Tu2-
4cc#	-re
=115	=115
*M4/4	*
4dd}	gleich!}
4r	.
2r	.
*-	*-
